**kern	**kern	**dynam
*part1	*part1	*part1
*staff2	*staff1	*
*I"Piano	*	*
*clefF4	*clefG2	*
*k[]	*k[]	*
=1	=1	=1
!	!LO:TX:a:i:t=dim.	!
4GG#X	4e 4b	.
4EE	4g#X 4ee	.
=	=	=
4AA	4e 4cc	.
4C)	4e) [4a	.
=	=	=
4D	4f 4a] [4b	.
4E	4e 4g#X 4b]	.
=	=	=
4AA	4e 4a 4cc	.
4DD	4f 4a 4dd	.
=	=	=
[2AA	[2e [2a [2cc	.
=	=	=
2AA]	2e] 2a] 2cc]	.
=	=	=
(4CC 4C	(2e 2g 2cc	.
[4EE) [4E	.	.
=	=	=
2EE] 2E]	2e) 2g#X 2b 2ee	.
=	=	=
[2AAA [2AA	[2e [2a [2cc [2ee	.
=	=	=
!	!	!LO:DY:a
2AAA] 2AA]	2e] 2a] 2cc] 2ee]	ppp
==	==	==
*-	*-	*-
!!!system-decoration: {(s1,s2)}
